src/img/icons/brand-04.svg

<svg width="64" height="65" viewBox="0 0 64 65" fill="none" xmlns="http://www.w3.org/2000/svg">
<path fill-rule="evenodd" clip-rule="evenodd" d="M63 32.2939C63 49.4148 49.1208 63.2939 32 63.2939C14.8792 63.2939 1 49.4148 1 32.2939C1 15.1731 14.8792 1.29394 32 1.29394C49.1208 1.29394 63 15.1731 63 32.2939ZM64 32.2939C64 49.9671 49.6731 64.2939 32 64.2939C14.3269 64.2939 2.17128e-06 49.9671 1.39876e-06 32.2939C6.26248e-07 14.6208 14.3269 0.293945 32 0.293944C49.6731 0.293943 64 14.6208 64 32.2939Z" fill="#1B1B1B"/>
<path fill-rule="evenodd" clip-rule="evenodd" d="M48 47.2939V17.2939C48 8.45739 40.8366 1.29395 32 1.29395C23.1634 1.29395 16 8.45739 16 17.2939V47.2939C16 56.1305 23.1634 63.2939 32 63.2939C40.8366 63.2939 48 56.1305 48 47.2939ZM32 0.293945C22.6112 0.293945 15 7.9051 15 17.2939V47.2939C15 56.6828 22.6112 64.2939 32 64.2939C41.3888 64.2939 49 56.6828 49 47.2939V17.2939C49 7.9051 41.3888 0.293945 32 0.293945Z" fill="#1B1B1B"/>
<path fill-rule="evenodd" clip-rule="evenodd" d="M40 24.2939H24V40.2939H40V24.2939ZM23 23.2939V41.2939H41V23.2939H23Z" fill="#1B1B1B"/>
<path fill-rule="evenodd" clip-rule="evenodd" d="M17 48.2939L47 48.2939C55.8366 48.2939 63 41.1305 63 32.2939C63 23.4574 55.8366 16.2939 47 16.2939L17 16.2939C8.16344 16.2939 1 23.4574 0.999999 32.2939C0.999999 41.1305 8.16344 48.2939 17 48.2939ZM64 32.2939C64 22.9051 56.3888 15.2939 47 15.2939L17 15.2939C7.61116 15.2939 -3.32697e-07 22.9051 -7.43099e-07 32.2939C-1.1535e-06 41.6828 7.61116 49.2939 17 49.2939L47 49.2939C56.3888 49.2939 64 41.6828 64 32.2939Z" fill="#1B1B1B"/>
</svg>

<svg xmlns="http://www.w3.org/2000/svg" fill="none" viewBox="0 0 64 65"><path fill="#1B1B1B" fill-rule="evenodd" d="M63 32.294c0 17.12-13.88 31-31 31-17.12 0-31-13.88-31-31 0-17.12 13.88-31 31-31 17.12 0 31 13.88 31 31zm1 0c0 17.673-14.327 32-32 32-17.673 0-32-14.327-32-32 0-17.673 14.327-32 32-32 17.673 0 32 14.327 32 32z" clip-rule="evenodd"/><path fill="#1B1B1B" fill-rule="evenodd" d="M48 47.294v-30c0-8.837-7.163-16-16-16s-16 7.163-16 16v30c0 8.837 7.163 16 16 16s16-7.163 16-16zm-16-47c-9.389 0-17 7.611-17 17v30c0 9.389 7.611 17 17 17s17-7.611 17-17v-30c0-9.389-7.611-17-17-17z" clip-rule="evenodd"/><path fill="#1B1B1B" fill-rule="evenodd" d="M40 24.294H24v16h16v-16zm-17-1v18h18v-18H23z" clip-rule="evenodd"/><path fill="#1B1B1B" fill-rule="evenodd" d="M17 48.294h30c8.837 0 16-7.163 16-16s-7.163-16-16-16H17c-8.837 0-16 7.163-16 16s7.163 16 16 16zm47-16c0-9.389-7.611-17-17-17H17c-9.389 0-17 7.611-17 17s7.611 17 17 17h30c9.389 0 17-7.611 17-17z" clip-rule="evenodd"/></svg>
